packages/web/src/assets/img/nextstrain_clades.svg

<svg xmlns="http://www.w3.org/2000/svg" class="d3-component" viewBox="-70 0 830 550" font-family="sans-serif" font-size="1.25rem"><path fill="none" stroke="#ccc" stroke-width="3" d="M180 308c-90 0-90 22-180 22m180 22c-90 0-90-22-180-22m360-220c-90 0-90 198-180 198m180 22c-90 0-90-22-180-22m180 66c-90 0-90-66-180-66m180 110c-90 0-90-110-180-110m180 154c-90 0-90-154-180-154m180 198c-90 0-90-198-180-198M540 44c-90 0-90 66-180 66m180-22c-90 0-90 22-180 22m180 22c-90 0-90-22-180-22m180 66c-90 0-90-66-180-66m180 154c-90 0-90 66-180 66m180-22c-90 0-90 22-180 22m180 22c-90 0-90-22-180-22m180 66c-90 0-90-66-180-66"/><g class="node" transform="translate(0 330)"><circle class="node" r="15" cursor="pointer" fill="#463bd0" stroke="#3d33b5"/><text dy=".35em" x="-20" text-anchor="end" fill="#777" font-weight="700">19A</text></g><g class="node" transform="translate(180 308)"><circle class="node" r="15" cursor="pointer" fill="#5197d0" stroke="#4683b5"/><text dy=".35em" x="-20" text-anchor="end" fill="#777" font-weight="700">20A</text></g><g class="node" transform="translate(180 352)"><circle class="node" r="15" cursor="pointer" fill="#456ede" stroke="#3c5fc1"/><text dy=".35em" x="20" fill="#777" font-weight="700">19B</text></g><g class="node" transform="translate(360 110)"><circle class="node" r="15" cursor="pointer" fill="#64b4af" stroke="#579c98"/><text dy=".35em" x="-20" text-anchor="end" fill="#777" font-weight="700">20B</text></g><g class="node" transform="translate(360 330)"><circle class="node" r="15" cursor="pointer" fill="#80c388" stroke="#6fa976"/><text dy=".35em" x="-20" text-anchor="end" fill="#777" font-weight="700">20C</text></g><g class="node" transform="translate(360 374)"><circle class="node" r="15" cursor="pointer" fill="#c6ca51" stroke="#abaf46"/><text dy=".35em" x="20" fill="#777" font-weight="700">20E (EU1)</text></g><g class="node" transform="translate(360 418)"><circle class="node" r="15" cursor="pointer" fill="#8497d0" stroke="#7383b5"/><text dy=".35em" x="20" fill="#777" font-weight="700">21A (Delta)</text></g><g class="node" transform="translate(360 462)"><circle class="node" r="15" cursor="pointer" fill="#84978c" stroke="#738379"/><text dy=".35em" x="20" fill="#777" font-weight="700">21B (Kappa)</text></g><g class="node" transform="translate(360 506)"><circle class="node" r="15" cursor="pointer" fill="#b89702" stroke="#9f8302"/><text dy=".35em" x="20" fill="#777" font-weight="700">21D (Eta)</text></g><g class="node" transform="translate(540 44)"><circle class="node" r="15" cursor="pointer" fill="#ec3227" stroke="#cd2c22"/><text dy=".35em" x="20" fill="#777" font-weight="700">20I (Alpha, V1)</text></g><g class="node" transform="translate(540 88)"><circle class="node" r="15" cursor="pointer" fill="#e4be44" stroke="#c5a53b"/><text dy=".35em" x="20" fill="#777" font-weight="700">20F</text></g><g class="node" transform="translate(540 132)"><circle class="node" r="15" cursor="pointer" fill="#a1cb67" stroke="#8cb059"/><text dy=".35em" x="20" fill="#777" font-weight="700">20D</text></g><g class="node" transform="translate(540 176)"><circle class="node" r="15" cursor="pointer" fill="#ba4d26" stroke="#a14321"/><text dy=".35em" x="20" fill="#777" font-weight="700">21E (Theta)</text></g><g class="node" transform="translate(540 264)"><circle class="node" r="15" cursor="pointer" fill="#f56f32" stroke="#d4602c"/><text dy=".35em" x="20" fill="#777" font-weight="700">20H (Beta, V2)</text></g><g class="node" transform="translate(540 308)"><circle class="node" r="15" cursor="pointer" fill="#f6a13c" stroke="#d58c34"/><text dy=".35em" x="20" fill="#777" font-weight="700">20G</text></g><g class="node" transform="translate(540 352)"><circle class="node" r="15" cursor="pointer" fill="#08b288" stroke="#079b76"/><text dy=".35em" x="20" fill="#777" font-weight="700">21C</text></g><g class="node" transform="translate(540 396)"><circle class="node" r="15" cursor="pointer" fill="#3be688" stroke="#33c776"/><text dy=".35em" x="20" fill="#777" font-weight="700">21F (Iota)</text></g></svg>

<svg xmlns="http://www.w3.org/2000/svg" class="d3-component" viewBox="-70 0 830 550" width="1000" height="600" font-family="sans-serif" font-size="1.25rem"><path fill="none" stroke="#ccc" stroke-width="3" d="M180 308c-90 0-90 22-180 22M180 352c-90 0-90-22-180-22M360 110c-90 0-90 198-180 198M360 330c-90 0-90-22-180-22M360 374c-90 0-90-66-180-66M360 418c-90 0-90-110-180-110M360 462c-90 0-90-154-180-154M360 506c-90 0-90-198-180-198M540 44c-90 0-90 66-180 66M540 88c-90 0-90 22-180 22M540 132c-90 0-90-22-180-22M540 176c-90 0-90-66-180-66M540 264c-90 0-90 66-180 66M540 308c-90 0-90 22-180 22M540 352c-90 0-90-22-180-22M540 396c-90 0-90-66-180-66"/><g class="node" transform="translate(0 330)"><circle class="node" r="15" cursor="pointer" fill="#463bd0" stroke="#3d33b5"/><text dy=".35em" x="-20" text-anchor="end" fill="#777" font-weight="700">19A</text></g><g class="node" transform="translate(180 308)"><circle class="node" r="15" cursor="pointer" fill="#5197d0" stroke="#4683b5"/><text dy=".35em" x="-20" text-anchor="end" fill="#777" font-weight="700">20A</text></g><g class="node" transform="translate(180 352)"><circle class="node" r="15" cursor="pointer" fill="#456ede" stroke="#3c5fc1"/><text dy=".35em" x="20" fill="#777" font-weight="700">19B</text></g><g class="node" transform="translate(360 110)"><circle class="node" r="15" cursor="pointer" fill="#64b4af" stroke="#579c98"/><text dy=".35em" x="-20" text-anchor="end" fill="#777" font-weight="700">20B</text></g><g class="node" transform="translate(360 330)"><circle class="node" r="15" cursor="pointer" fill="#80c388" stroke="#6fa976"/><text dy=".35em" x="-20" text-anchor="end" fill="#777" font-weight="700">20C</text></g><g class="node" transform="translate(360 374)"><circle class="node" r="15" cursor="pointer" fill="#c6ca51" stroke="#abaf46"/><text dy=".35em" x="20" fill="#777" font-weight="700">20E (EU1)</text></g><g class="node" transform="translate(360 418)"><circle class="node" r="15" cursor="pointer" fill="#8497d0" stroke="#7383b5"/><text dy=".35em" x="20" fill="#777" font-weight="700">21A (Delta)</text></g><g class="node" transform="translate(360 462)"><circle class="node" r="15" cursor="pointer" fill="#84978c" stroke="#738379"/><text dy=".35em" x="20" fill="#777" font-weight="700">21B (Kappa)</text></g><g class="node" transform="translate(360 506)"><circle class="node" r="15" cursor="pointer" fill="#b89702" stroke="#9f8302"/><text dy=".35em" x="20" fill="#777" font-weight="700">21D (Eta)</text></g><g class="node" transform="translate(540 44)"><circle class="node" r="15" cursor="pointer" fill="#ec3227" stroke="#cd2c22"/><text dy=".35em" x="20" fill="#777" font-weight="700">20I (Alpha, V1)</text></g><g class="node" transform="translate(540 88)"><circle class="node" r="15" cursor="pointer" fill="#e4be44" stroke="#c5a53b"/><text dy=".35em" x="20" fill="#777" font-weight="700">20F</text></g><g class="node" transform="translate(540 132)"><circle class="node" r="15" cursor="pointer" fill="#a1cb67" stroke="#8cb059"/><text dy=".35em" x="20" fill="#777" font-weight="700">20D</text></g><g class="node" transform="translate(540 176)"><circle class="node" r="15" cursor="pointer" fill="#ba4d26" stroke="#a14321"/><text dy=".35em" x="20" fill="#777" font-weight="700">21E (Theta)</text></g><g class="node" transform="translate(540 264)"><circle class="node" r="15" cursor="pointer" fill="#f56f32" stroke="#d4602c"/><text dy=".35em" x="20" fill="#777" font-weight="700">20H (Beta, V2)</text></g><g class="node" transform="translate(540 308)"><circle class="node" r="15" cursor="pointer" fill="#f6a13c" stroke="#d58c34"/><text dy=".35em" x="20" fill="#777" font-weight="700">20G</text></g><g class="node" transform="translate(540 352)"><circle class="node" r="15" cursor="pointer" fill="#08b288" stroke="#079b76"/><text dy=".35em" x="20" fill="#777" font-weight="700">21C</text></g><g class="node" transform="translate(540 396)"><circle class="node" r="15" cursor="pointer" fill="#3be688" stroke="#33c776"/><text dy=".35em" x="20" fill="#777" font-weight="700">21F (Iota)</text></g></svg>
